!!!COM: Bach, Johann Sebastian
!!!OPR: Joh. Seb. Bachs vierstimmige Choralgesänge
!!!XEN: Four-part Chorales
!!!OTL: 158. Singt dem Herrn ein neues Lied
!!!SCT: BWV 411
!!!SCA: Thematisch-systematisches Verzeichnis der musikalischen Werke Johann Sebastian Bach: Bach-Werke-Verzeichnis (Schmieder)
!!!YOR: Bach Gesellschaft Edition xxxix
!!!ENC: Steven Rasmussen
!!!CDT: 1685/3//-1750/7/28/
!!!OCY: Deutschland
!!!YEC: Copyright (c) 1994, 2000 Center for Computer Assisted Research in the Humanities
!!!YEM: Rights to all derivative editions reserved
!!!YEN: United States of America
**kern	**kern	**kern	**silbe	**kern	**silbe
*I:[BASSO]	*I:[TENORE]	*I:[ALTO]	*I:[ALTO]	*I:[SOPRANO]	*I:[SOPRANO]
*>[A,A,B]	*>[A,A,B]	*>[A,A,B]	*	*>[A,A,B,A,A,B,C]	*
*>A	*>A	*>A	*	*>A	*
*clefF4	*clefGv2	*clefG2	*	*clefG2	*
*k[f#]	*k[f#]	*k[f#]	*	*k[f#]	*
*G:	*G:	*G:	*	*G:	*
*M4/4	*M4/4	*M4/4	*	*M4/4	*
=1-	=1-	=1-	=1-	=1-	=1-
8GL	8BL	8dL	.	4g	Singtweil
8AJ	8cJ	8cJ	.	.	.
8BL	8dL	8BL	.	4g	demer
8AJ	8cJ	8cJ	.	.	.
8GL	8BL	4d	.	4g	Herrnih-
8AJ	8cJ	.	.	.	.
8GL	8BL	4d	.	4d	ein-ren
8F#J	8AJ	.	.	.	.
=2	=2	=2	=2	=2	=2
8EL	4B	(16eLL	.	4g	neu-Gren-
.	.	16f#JJ	.	.	.
8DJ	.	4g)	.	.	.
8CL	8eL	.	.	4a	-es-zen
8DJ	8dJ	8f#	.	.	.
2GG;	2d;	2g;	.	2b;	Lied:Fried'
*	*	*	*	*>B	*
=3	=3	=3	=3	=3	=3
8GL	8BL	4d	diehat	8g	diehat
8F#J	8AJ	.	.	8a	Ge-ver-
8GL	4G	8dL	Ge-ver-	8b	-mei--lie-
8EJ	.	8gJ	.	8cc#	-ne-hen
8F#L	4A	4f#	-mei--lie-	4dd	sollhoch
8E	.	.	.	.	.
8DJ	4d	4a	-ne-hen	4ff#	ihnvon
16ELL	.	.	.	.	.
16F#JJ	.	.	.	.	.
=4	=4	=4	=4	=4	=4
8G	8d	8b	sollhoch	2ee	lo-o-
8E	16c#LL	8g	ihnvon	.	.
.	16BJJ	.	.	.	.
4A	4c#	8eL	lo-o-	.	.
.	.	16aL	.	.	.
.	.	16gJJ	.	.	.
2D;	2A;	2f#;	-ben,-ben.	2dd;	-ben,-ben.
=5:|!	=5:|!	=5:|!	=5:|!	=5:|!	=5:|!
*>B	*>B	*>B	*	*>C	*
4.c	4c	8gL	.	4ee	Is-
.	.	8eJ	.	.	.
.	4d	8f#L	.	4dd	-ra-
8B	.	8g#J	.	.	.
4.A	8eL	4a	.	4cc	-el
.	8dJ	.	.	.	.
.	8cL	4e	.	4ee	er-
8G	8BJ	.	.	.	.
=6	=6	=6	=6	=6	=6
4.Fn	8AL	8aL	.	4dd	-freu'
.	8BJ	8g#J	.	.	.
.	8cL	4a	.	4cc	sich
8E	16dL	.	.	.	.
.	16eJJ	.	.	.	.
8DL	8fnL	8aL	.	2b	des-
8BBJ	8d	16g#L	.	.	.
.	.	16f#JJ	.	.	.
4E	8B	4g#	.	.	.
.	16eL	.	.	.	.
.	16dJJ	.	.	.	.
=7	=7	=7	=7	=7	=7
2AA;	2c;	2e;	.	2a;	-sen,
8AAL	4c	4e	.	4a	wel-
8CJ	.	.	.	.	.
8EL	4B	4e	.	4g#	-cher
8DJ	.	.	.	.	.
=8	=8	=8	=8	=8	=8
8CL	4c	4e	.	4a	ihn
8BBJ	.	.	.	.	.
8AAL	4B	4e	.	4b	ge-
8GG#J	.	.	.	.	.
8AAL	8BL	4e	.	4cc	-ma-
8BBJ	16AL	.	.	.	.
.	16G#JJ	.	.	.	.
8CL	4A	4e	.	4cc	-chet
8DJ	.	.	.	.	.
=9	=9	=9	=9	=9	=9
2E;	(4A	2e;	.	2b;	hat,
.	4G#;)	.	.	.	.
8EL	8BL	4.e	.	4g	und
8CJ	16cL	.	.	.	.
.	16BJJ	.	.	.	.
4Fn	4A	.	.	4a	in
.	.	16dLL	.	.	.
.	.	16cJJ	.	.	.
=10	=10	=10	=10	=10	=10
8FnL	8GL	(8d	.	4b	Aeng-
8EJ	8BJ	4g)	.	.	.
8AL	16ALL	.	.	4cc	-sten
.	16BJ	.	.	.	.
8GJ	8cJ	16fnLL	.	.	.
.	.	16eJJ	.	.	.
8FL	4d	4a	.	4cc	schaf-
8DJ	.	.	.	.	.
4G	8dL	4g	.	4b	-fet
.	8fnJ	.	.	.	.
=11	=11	=11	=11	=11	=11
2C;	2e;	2g;	.	2cc;	Rat:
8BBL	4d	4g	.	4.dd	Sei-
8CJ	.	.	.	.	.
4D	4A	4f#	.	.	.
.	.	.	.	8cc	-ner
=12	=12	=12	=12	=12	=12
(8GG	4G	4d	.	4b	soll
4G)	.	.	.	.	.
.	4A	4d	.	4a	er
8F#	.	.	.	.	.
8EL	8BL	8eL	.	8gL	nicht
8DJ	8cJ	8f#J	.	8aJ	.
8CL	4d	4g	.	4b	ver-
8BBJ	.	.	.	.	.
=13	=13	=13	=13	=13	=13
8CL	8eL	8gL	.	2a	-ges-
8AAJ	8c	16f#L	.	.	.
.	.	16eJJ	.	.	.
4D	8A	4f#	.	.	.
.	16dL	.	.	.	.
.	16cJJ	.	.	.	.
2GG;	2B;	2d;	.	2g;	-sen.
==|!	==|!	==|!	==|!	==|!	==|!
!!!RNB1: *) "Aengsten": sic in BG.
*-	*-	*-	*-	*-	*-
!!!RWG: Key is interpreted using the Humdrum key tool.
!!!END: 1994/07/29
!!!EMD: Converted from MuseData to Humdrum Dec 19, 2000, by Andreas Kornstaedt using muse2kern.
!!!EED: Craig Stuart Sapp
!!!EEV: 2024/03/31
!!!ONB: Some non-unicode characters
